%
(Header)
(Generated by gcodetools from Inkscape.)
(Using default header. To add your own header create file "header" in the output dir.)
M3
(Header end.)
G21 (All units in mm)

(Start cutting path id: path4453)
(Change tool to Default tool)

G00 Z5.000000
G00 X48.703383 Y71.271882

G01 Z-0.125000 F100.0(Penetrate)
G02 X47.184429 Y63.714616 Z-0.125000 I-19.559355 J0.000000 F400.000000
G02 X44.901282 Y62.195661 Z-0.125000 I-2.283150 J0.956429
G02 X43.664507 Y62.703871 Z-0.125000 I-0.000002 J1.759002
G02 X42.212789 Y64.854023 Z-0.125000 I4.655920 J4.708692
G02 X41.417420 Y67.576352 Z-0.125000 I11.656261 J4.882903
G02 X41.099179 Y71.271882 Z-0.125000 I21.297750 J3.695531
G02 X41.417420 Y74.967413 Z-0.125000 I21.615992 J-0.000000
G02 X42.212789 Y77.689741 Z-0.125000 I12.451629 J-2.160575
G02 X43.664507 Y79.839893 Z-0.125000 I6.107638 J-2.558540
G02 X44.901282 Y80.348104 Z-0.125000 I1.236773 J-1.250791
G02 X47.184429 Y78.829149 Z-0.125000 I-0.000002 J-2.475385
G02 X48.703383 Y71.271882 Z-0.125000 I-18.040402 J-7.557266
G01 X48.703383 Y71.271882 Z-0.125000
G00 Z5.000000

(End cutting path id: path4453)


(Start cutting path id: path4453-7)
(Change tool to Default tool)

G00 Z5.000000
G00 X67.946784 Y70.986784

G01 Z-0.125000 F100.0(Penetrate)
G02 X67.628542 Y67.291254 Z-0.125000 I-21.615992 J-0.000000 F400.000000
G02 X66.833174 Y64.568925 Z-0.125000 I-12.451629 J2.160575
G02 X65.381456 Y62.418773 Z-0.125000 I-6.107638 J2.558540
G02 X64.144681 Y61.910563 Z-0.125000 I-1.236773 J1.250791
G02 X61.861533 Y63.429518 Z-0.125000 I0.000002 J2.475385
G02 X60.342580 Y70.986784 Z-0.125000 I18.040402 J7.557266
G02 X61.861533 Y78.544051 Z-0.125000 I19.559355 J-0.000000
G02 X64.144681 Y80.063006 Z-0.125000 I2.283150 J-0.956429
G02 X65.381456 Y79.554795 Z-0.125000 I0.000002 J-1.759002
G02 X66.833174 Y77.404643 Z-0.125000 I-4.655920 J-4.708692
G02 X67.628542 Y74.682315 Z-0.125000 I-11.656261 J-4.882903
G02 X67.946784 Y70.986784 Z-0.125000 I-21.297750 J-3.695531
G01 X67.946784 Y70.986784 Z-0.125000
G00 Z5.000000

(End cutting path id: path4453-7)


(Start cutting path id: path3347)
(Change tool to Default tool)

G00 Z5.000000
G00 X88.493064 Y61.436359

G01 Z-0.125000 F100.0(Penetrate)
G02 X85.966924 Y48.736593 Z-0.125000 I-33.186085 J0.000000 F400.000000
G02 X78.773084 Y37.970252 Z-0.125000 I-30.659945 J12.699766
G02 X68.006742 Y30.776413 Z-0.125000 I-23.466105 J23.466107
G02 X55.306976 Y28.250274 Z-0.125000 I-12.699763 J30.659946
G02 X31.840871 Y37.970253 Z-0.125000 I0.000000 J33.186085
G02 X22.120891 Y61.436359 Z-0.125000 I23.466106 J23.466106
G02 X24.647031 Y74.136125 Z-0.125000 I33.186085 J0.000003
G02 X31.840870 Y84.902467 Z-0.125000 I30.659946 J-12.699763
G02 X42.607211 Y92.096306 Z-0.125000 I23.466107 J-23.466105
G02 X55.306976 Y94.622447 Z-0.125000 I12.699766 J-30.659944
G02 X68.006743 Y92.096307 Z-0.125000 I0.000003 J-33.186085
G02 X78.773085 Y84.902468 Z-0.125000 I-12.699764 J-30.659945
G02 X85.966925 Y74.136125 Z-0.125000 I-23.466106 J-23.466106
G02 X88.493064 Y61.436359 Z-0.125000 I-30.659945 J-12.699764
G01 X88.493064 Y61.436359 Z-0.125000
G00 Z5.000000

(End cutting path id: path3347)


(Start cutting path id: path4455)
(Change tool to Default tool)

G00 Z5.000000
G00 X35.447456 Y54.170356

G01 Z-0.125000 F100.0(Penetrate)
G03 X46.343629 Y47.342272 Z-0.125000 I48.245261 J64.881173 F400.000000
G03 X54.736882 Y45.316130 Z-0.125000 I8.277821 J15.893196
G03 X63.122318 Y47.459763 Z-0.125000 I-0.115465 J17.924517
G03 X74.026308 Y54.492329 Z-0.125000 I-39.131897 J72.643583
G02 X62.959861 Y42.087807 Z-0.125000 I-92.270318 J71.178509
G02 X54.736882 Y38.715709 Z-0.125000 I-8.310928 J8.554426
G02 X46.499214 Y41.979105 Z-0.125000 I-0.087085 J11.808888
G02 X35.447456 Y54.170356 Z-0.125000 I78.248526 J82.039802
G01 X35.447456 Y54.170356 Z-0.125000
G00 Z5.000000

(End cutting path id: path4455)


(Footer)
M5
G00 X0.0000 Y0.0000
M2
(Using default footer. To add your own footer create file "footer" in the output dir.)
(end)
%